X: 27805
T: Morrison's
R: jig
M: 6/8
K: Edorian
E~E2 BAB|EBE AFD|E~E2 BAB|dcB AFD|
E~E2 BAB|EBE AFD|G2G FGA|dAF FED:|
Bee fee|bee fed|Bee fee|fag fed|
Bee fee|bee fed|edc d2 B|AFd AFA||
Bee fee|bee fed|Bee fee|fag fef|
g~g2 gfe|def g2f|edc d2 B|AFd AFD||

